rospo-icon-theme-classic-common/64x64/apps/goa-account-google.svg

<svg height="64" viewBox="0 0 64 64" width="64" xmlns="http://www.w3.org/2000/svg"><circle cx="32" cy="33" opacity=".2" r="28"/><circle cx="32" cy="32" fill="#d2d2d2" r="28"/><path d="m32.423828 13c-7.842565 0-14.826153 4.514508-18.222656 11.085938l4.669922 3.160156-4.683594-3.160156c-1.384839 2.685715-2.1875 5.714062-2.1875 8.914062 0 3.314286.846056 6.429017 2.318359 9.171875l6.583985-4.632813a12 12 0 0 1 -.902344-4.539062 12 12 0 0 1  .851562-4.412109 12 12 0 0 1 11.148438-7.587891 12 12 0 0 1 8.248047 3.302734l5.585937-5.945312c-3.469389-3.314286-8.162341-5.357422-13.410156-5.357422zm-.423828 16v8h11.292969a12 12 0 0 1 -4.345703 5.767578 12 12 0 0 1 -.01563.0098 12 12 0 0 1 -6.931636 2.222622 12 12 0 0 1 -11.09375-7.453125l-6.574219 4.625c3.440236 6.428571 10.351272 10.828125 18.091797 10.828125 5.131196 0 9.720972-1.92952 13.175781-5.115234 3.950439-3.657143 6.400391-8.984766 6.400391-14.884766 0-.959964-.086017-1.89141-.212891-2.810547l.017579-.113281-.185547-1.076172h-3.81836-4.501953z" opacity=".1"/><path d="m32 28v8h11.292969c-.832146 2.351487-2.376387 4.385215-4.417969 5.818359l6.724609 5.066407c3.950439-3.657143 6.400391-8.984766 6.400391-14.884766 0-.959964-.086017-1.89141-.212891-2.810547l.017579-.113281-.185547-1.076172h-3.81836-4.501953z" fill="#3779d7"/><path d="m32.423828 12c-7.842565 0-14.826153 4.514508-18.222656 11.085938l6.65039 4.501953a12 12 0 0 1 11.148438-7.587891 12 12 0 0 1 8.248047 3.302734l5.585937-5.945312c-3.469389-3.314286-8.162341-5.357422-13.410156-5.357422z" fill="#e7453c"/><path d="m14.1875 23.085938c-1.384839 2.685715-2.1875 5.714062-2.1875 8.914062 0 3.314286.846056 6.429017 2.318359 9.171875l6.583985-4.632813a12 12 0 0 1 -.902344-4.539062 12 12 0 0 1  .851562-4.412109l-1.880859-1.273438z" fill="#eead33"/><path d="m20.90625 36.546875-6.574219 4.625c3.440236 6.428571 10.351272 10.828125 18.091797 10.828125 5.131196 0 9.720972-1.92952 13.175781-5.115234l-6.652343-5.117188a12 12 0 0 1 -6.947266 2.232422 12 12 0 0 1 -11.09375-7.453125z" fill="#359950"/><path d="m32 4a28 28 0 0 0 -28 28 28 28 0 0 0  .0214844.585938 28 28 0 0 1 27.9785156-27.585938 28 28 0 0 1 27.978516 27.414062 28 28 0 0 0  .021484-.414062 28 28 0 0 0 -28-28z" fill="#fff" opacity=".2"/></svg>

<svg xmlns="http://www.w3.org/2000/svg" width="64" height="64" version="1.1" viewBox="0 0 64 64">
 <circle style="opacity:0.2" cx="32" cy="33" r="28"/>
 <circle style="fill:#d2d2d2" cx="32" cy="32" r="28"/>
 <path style="opacity:0.1" d="M 32.423828,13 C 24.581263,13 17.597675,17.514508 14.201172,24.085938 L 18.871094,27.246094 14.1875,24.085938 C 12.802661,26.771653 12,29.8 12,33 c 0,3.314286 0.846056,6.429017 2.318359,9.171875 l 6.583985,-4.632813 A 12,12 0 0 1 20,33 12,12 0 0 1 20.851562,28.587891 12,12 0 0 1 32,21 a 12,12 0 0 1 8.248047,3.302734 l 5.585937,-5.945312 C 42.364595,15.043136 37.671643,13 32.423828,13 Z M 32,29 l 0,8 11.292969,0 a 12,12 0 0 1 -4.345703,5.767578 12,12 0 0 1 -0.01563,0.0098 A 12,12 0 0 1 32,45 12,12 0 0 1 20.90625,37.546875 l -6.574219,4.625 C 17.772267,48.600446 24.683303,53 32.423828,53 37.555024,53 42.1448,51.07048 45.599609,47.884766 49.550048,44.227623 52,38.9 52,33 52,32.040036 51.913983,31.10859 51.787109,30.189453 L 51.804688,30.076172 51.619141,29 47.800781,29 43.298828,29 32,29 Z"/>
 <path style="fill:#3779d7" d="m 32,28 0,8 11.292969,0 c -0.832146,2.351487 -2.376387,4.385215 -4.417969,5.818359 l 6.724609,5.066407 C 49.550048,43.227623 52,37.9 52,32 52,31.040036 51.913983,30.10859 51.787109,29.189453 L 51.804688,29.076172 51.619141,28 l -3.81836,0 -4.501953,0 z"/>
 <path style="fill:#e7453c" d="M 32.423828 12 C 24.581263 12 17.597675 16.514508 14.201172 23.085938 L 20.851562 27.587891 A 12 12 0 0 1 32 20 A 12 12 0 0 1 40.248047 23.302734 L 45.833984 17.357422 C 42.364595 14.043136 37.671643 12 32.423828 12 z"/>
 <path style="fill:#eead33" d="M 14.1875 23.085938 C 12.802661 25.771653 12 28.8 12 32 C 12 35.314286 12.846056 38.429017 14.318359 41.171875 L 20.902344 36.539062 A 12 12 0 0 1 20 32 A 12 12 0 0 1 20.851562 27.587891 L 18.970703 26.314453 L 14.1875 23.085938 z"/>
 <path style="fill:#359950" d="M 20.90625 36.546875 L 14.332031 41.171875 C 17.772267 47.600446 24.683303 52 32.423828 52 C 37.555024 52 42.1448 50.07048 45.599609 46.884766 L 38.947266 41.767578 A 12 12 0 0 1 32 44 A 12 12 0 0 1 20.90625 36.546875 z"/>
 <path style="fill:#ffffff;opacity:0.2" d="M 32 4 A 28 28 0 0 0 4 32 A 28 28 0 0 0 4.0214844 32.585938 A 28 28 0 0 1 32 5 A 28 28 0 0 1 59.978516 32.414062 A 28 28 0 0 0 60 32 A 28 28 0 0 0 32 4 z"/>
</svg>
